X:5
T:Gigue in C Major
C:Bach, J.S.
M:6/8
L:1/8
Q:3/8=112
K:C
|:G|c2e g2e|f2d B2G|A2c e2c|d2B G2E|
F2A c2A|B2G E2C|DEFG AB|c6:|
|:c|e2g c'2g|b2g d2B|c2e g2e|f2d B2G|
A2f e2d|c2g B2A|GABC DE|F6:|

